_includes/icons/ios-brief.svg

<svg fill="#666" height="50" viewBox="0 0 50 50" width="50" xmlns="http://www.w3.org/2000/svg"><path d="m31.90625 1.96875c-.042969.007813-.085937.019531-.125.03125h-24.78125v46h36v-34.8125c.027344-.132812.027344-.273437 0-.40625v-.1875l-.15625-.15625c-.007812-.019531-.019531-.042969-.03125-.0625l-.03125-.03125c-.019531-.023437-.039062-.042969-.0625-.0625h-.03125c-.019531-.023437-.039062-.042969-.0625-.0625l-9.78125-9.78125c-.074219-.113281-.167969-.207031-.28125-.28125l-.15625-.15625h-.21875c-.089844-.023437-.1875-.035156-.28125-.03125zm-22.90625 2.03125h22v10h10v32h-32zm24 1.4375 6.5625 6.5625h-6.5625zm-19 12.5625v6h6v-6zm2 2h2v2h-2zm6 0v2h14v-2zm-8 6v6h6v-6zm2 2h2v2h-2zm6 0v2h14v-2zm-8 6v6h6v-6zm2 2h2v2h-2zm6 0v2h14v-2z"/></svg>

<svg xmlns="http://www.w3.org/2000/svg" viewBox="0 0 50 50" width="50" height="50" fill="#666"><path d="M 31.90625 1.96875 C 31.863281 1.976563 31.820313 1.988281 31.78125 2 L 7 2 L 7 48 L 43 48 L 43 13.1875 C 43.027344 13.054688 43.027344 12.914063 43 12.78125 L 43 12.59375 L 42.84375 12.4375 C 42.835938 12.417969 42.824219 12.394531 42.8125 12.375 L 42.78125 12.34375 C 42.761719 12.320313 42.742188 12.300781 42.71875 12.28125 L 42.6875 12.28125 C 42.667969 12.257813 42.648438 12.238281 42.625 12.21875 L 32.84375 2.4375 C 32.769531 2.324219 32.675781 2.230469 32.5625 2.15625 L 32.40625 2 L 32.1875 2 C 32.097656 1.976563 32 1.964844 31.90625 1.96875 Z M 9 4 L 31 4 L 31 14 L 41 14 L 41 46 L 9 46 Z M 33 5.4375 L 39.5625 12 L 33 12 Z M 14 18 L 14 24 L 20 24 L 20 18 Z M 16 20 L 18 20 L 18 22 L 16 22 Z M 22 20 L 22 22 L 36 22 L 36 20 Z M 14 26 L 14 32 L 20 32 L 20 26 Z M 16 28 L 18 28 L 18 30 L 16 30 Z M 22 28 L 22 30 L 36 30 L 36 28 Z M 14 34 L 14 40 L 20 40 L 20 34 Z M 16 36 L 18 36 L 18 38 L 16 38 Z M 22 36 L 22 38 L 36 38 L 36 36 Z"/></svg>
